korla/actions/symbolic/system-run-symbolic.svg

<svg xmlns="http://www.w3.org/2000/svg" width="16" height="16" version="1.1">
 <path style="fill:#dfdfdf" d="M 7.76,5.993 7.65,7.31 A 3.9286,3.9286 0 0 0 6.5,7.974 L 5.3,7.411 4.05,9.576 5.14,10.331 A 3.9286,3.9286 0 0 0 5.08,10.993 3.9286,3.9286 0 0 0 5.14,11.659 L 4.05,12.411 5.3,14.576 6.5,14.014 A 3.9286,3.9286 0 0 0 7.65,14.674 L 7.76,15.993 H 10.26 L 10.37,14.676 A 3.9286,3.9286 0 0 0 11.52,14.012 L 12.71,14.576 13.96,12.411 12.88,11.656 A 3.9286,3.9286 0 0 0 12.94,10.993 3.9286,3.9286 0 0 0 12.88,10.328 L 13.96,9.576 12.71,7.411 11.52,7.973 A 3.9286,3.9286 0 0 0 10.37,7.313 L 10.26,5.993 Z M 9.01,9.565 A 1.4286,1.4286 0 0 1 10.44,10.993 1.4286,1.4286 0 0 1 9.01,12.422 1.4286,1.4286 0 0 1 7.58,10.993 1.4286,1.4286 0 0 1 9.01,9.565 Z"/>
 <path style="fill:#dfdfdf" d="M 7.19,6.263 6.85,5.545 A 2.3571,2.3571 0 0 0 7.25,4.856 L 8.04,4.79 V 3.289 L 7.25,3.223 A 2.3571,2.3571 0 0 0 7.08,2.861 2.3571,2.3571 0 0 0 6.85,2.532 L 7.19,1.816 5.89,1.066 5.44,1.717 A 2.3571,2.3571 0 0 0 4.64,1.719 L 4.19,1.066 2.89,1.816 3.23,2.533 A 2.3571,2.3571 0 0 0 2.83,3.223 L 2.04,3.289 V 4.789 L 2.83,4.855 A 2.3571,2.3571 0 0 0 3,5.218 2.3571,2.3571 0 0 0 3.23,5.546 L 2.89,6.262 4.19,7.012 4.64,6.362 A 2.3571,2.3571 0 0 0 5.44,6.36 L 5.89,7.013 Z M 5.47,4.782 A 0.85714,0.85714 0 0 1 4.3,4.468 0.85714,0.85714 0 0 1 4.61,3.297 0.85714,0.85714 0 0 1 5.78,3.611 0.85714,0.85714 0 0 1 5.47,4.782 Z"/>
</svg>

<svg style="clip-rule:evenodd;fill-rule:evenodd;stroke-linejoin:round;stroke-miterlimit:2" version="1.1" viewBox="0 0 16 16" xmlns="http://www.w3.org/2000/svg">
 <path d="m7.76 5.993-0.11 1.317c-0.418 0.154-0.807 0.379-1.15 0.664l-1.2-0.563-1.25 2.165 1.09 0.755c-0.039 0.219-0.059 0.44-0.06 0.662 1e-3 0.223 0.021 0.446 0.06 0.666l-1.09 0.752 1.25 2.165 1.2-0.562c0.343 0.284 0.732 0.507 1.15 0.66l0.11 1.319h2.5l0.11-1.317c0.418-0.154 0.807-0.379 1.15-0.664l1.19 0.564 1.25-2.165-1.08-0.755c0.039-0.219 0.059-0.441 0.06-0.663-1e-3 -0.223-0.021-0.445-0.06-0.665l1.08-0.752-1.25-2.165-1.19 0.562c-0.343-0.284-0.732-0.507-1.15-0.66l-0.11-1.32h-2.5zm1.247 2.322h6e-3c1.469 0 2.678 1.208 2.678 2.678s-1.209 2.679-2.678 2.679h-6e-3c-1.469 0-2.678-1.209-2.678-2.679s1.209-2.678 2.678-2.678z" style="fill-rule:nonzero;fill:rgb(223,223,223)"/>
 <path d="m7.19 6.263-0.34-0.718c0.171-0.205 0.307-0.438 0.4-0.689l0.79-0.066v-1.501l-0.79-0.066c-0.046-0.125-0.103-0.246-0.17-0.362s-0.144-0.226-0.23-0.329l0.34-0.716-1.3-0.75-0.45 0.651c-0.265-0.045-0.535-0.044-0.8 2e-3l-0.45-0.653-1.3 0.75 0.34 0.717c-0.172 0.206-0.307 0.439-0.4 0.69l-0.79 0.066v1.5l0.79 0.066c0.046 0.126 0.103 0.247 0.17 0.363s0.144 0.225 0.23 0.328l-0.34 0.716 1.3 0.75 0.45-0.65c0.265 0.045 0.535 0.044 0.8-2e-3l0.45 0.653 1.3-0.75zm-1.356-0.852c-0.752 0.433-1.727 0.171-2.161-0.58-0.435-0.75-0.177-1.726 0.573-2.163 0.752-0.433 1.727-0.171 2.161 0.58 0.435 0.75 0.177 1.726-0.573 2.163z" style="fill-opacity:.5;fill-rule:nonzero;fill:rgb(223,223,223)"/>
</svg>
